2017/images/front-in-poa-white.svg

<svg width="291" height="159" xmlns="http://www.w3.org/2000/svg"><path d="M40.75 3v1.176H21.375v16.099H38.25v1.175H21.375v16.7H20V3h20.75zm6.625 17.551h6.7c1.65 0 3.137-.196 4.462-.588 1.325-.391 2.45-.958 3.375-1.7a7.465 7.465 0 0 0 2.125-2.688c.492-1.049.738-2.233.738-3.549 0-2.717-.884-4.717-2.65-6-1.767-1.284-4.317-1.925-7.65-1.925h-7.1v16.45zm0 1.05v16.55H46V3h8.475c3.816 0 6.716.742 8.7 2.226 1.983 1.483 2.975 3.733 2.975 6.75 0 1.384-.259 2.641-.775 3.774a8.693 8.693 0 0 1-2.175 2.938c-.934.825-2.067 1.479-3.4 1.963-1.334.483-2.809.775-4.425.875.3.167.591.417.875.75l13.075 15.875H68.2c-.184 0-.346-.026-.488-.076-.142-.049-.279-.166-.412-.349L54.9 22.551a2.4 2.4 0 0 0-.413-.45 1.962 1.962 0 0 0-.475-.288 2.42 2.42 0 0 0-.625-.162 6.518 6.518 0 0 0-.887-.05h-5.125zm56.075-1.626c0-2.616-.362-4.962-1.087-7.037s-1.75-3.838-3.075-5.288a13.257 13.257 0 0 0-4.75-3.324c-1.842-.767-3.88-1.151-6.113-1.151-2.2 0-4.221.384-6.062 1.151a13.249 13.249 0 0 0-4.75 3.324c-1.325 1.45-2.359 3.213-3.1 5.288-.742 2.075-1.113 4.421-1.113 7.037 0 2.617.371 4.963 1.113 7.038.741 2.074 1.775 3.829 3.1 5.262a13.404 13.404 0 0 0 4.75 3.301c1.841.766 3.862 1.149 6.062 1.149 2.233 0 4.271-.383 6.113-1.149a13.413 13.413 0 0 0 4.75-3.301c1.325-1.433 2.35-3.188 3.075-5.262.725-2.075 1.087-4.421 1.087-7.038m1.45 0c0 2.75-.4 5.229-1.2 7.437-.8 2.209-1.925 4.092-3.375 5.651a14.66 14.66 0 0 1-5.2 3.587c-2.017.834-4.25 1.25-6.7 1.25-2.416 0-4.633-.416-6.65-1.25a14.66 14.66 0 0 1-5.2-3.587c-1.45-1.559-2.575-3.442-3.375-5.651-.8-2.208-1.2-4.687-1.2-7.437 0-2.733.4-5.208 1.2-7.425.8-2.217 1.925-4.103 3.375-5.662 1.45-1.559 3.184-2.763 5.2-3.613C83.792 2.425 86.009 2 88.425 2c2.45 0 4.683.421 6.7 1.263 2.016.842 3.75 2.041 5.2 3.6 1.45 1.558 2.575 3.446 3.375 5.662.8 2.217 1.2 4.7 1.2 7.45m8.05-16.913c.083.042.175.13.275.263l24 32.475c-.017-.15-.025-.3-.025-.45V3h1.2v35.15h-.575c-.217 0-.4-.1-.55-.3L113.15 5.25a8.01 8.01 0 0 1 .05.9v32H112V3h.625c.133 0 .242.021.325.062M169.2 3v1.2h-12.875v33.95h-1.375V4.2H142V3h27.2zm6.175 35.15H174V3h1.375v35.15zm9.575-35.088c.083.042.175.13.274.263l24 32.475a4.24 4.24 0 0 1-.024-.45V3h1.199v35.15h-.574c-.217 0-.4-.1-.551-.3l-24.125-32.6a9.83 9.83 0 0 1 .051.9v32H184V3h.625c.133 0 .241.021.325.062M243 2h-2l7.032 18.042-6.824 17.508h2l6.824-17.508L243 2zM9.876 3h-2L1 20.643 7.823 38.15h2L3 20.643 9.876 3zM222 37.55L235.856 2h-2L220 37.55h2zm2.903 70.742l6.398-18.97 6.367 18.97h-12.765zm-79.81 15.182c-12.645 0-22.895-10.251-22.895-22.896 0-12.645 10.25-22.896 22.895-22.896s22.896 10.251 22.896 22.896c0 12.645-10.251 22.896-22.896 22.896zM60.875 96.219v.019H55v-21h5.875v.019C66.499 75.456 71 80.066 71 85.738S66.499 96.02 60.875 96.219zm185.42-47.927h-30.03l-15.17 38.92C195.066 61.861 172.29 43 145.093 43c-18.661 0-35.24 8.885-45.761 22.647-1.715-3.146-3.963-5.98-6.722-8.45-3.527-3.157-8.096-5.069-13.967-7.01-5.196-1.715-11.328-1.949-19.299-1.949H21v107h34v-32h4.344c6.903 0 13.329-1.531 19.098-3.436 4-1.322 7.587-3.255 10.722-5.542 6.143 25.193 28.846 43.897 55.929 43.897 11.902 0 20.673-2.865 35.139-10.799l-3.703 7.934h32.288l7.488-22h29.945l8.067 22H288l-41.705-107z" fill="#FFF" fill-rule="evenodd"/></svg>

<?xml version="1.0" encoding="UTF-8" standalone="no"?>
<svg width="291px" height="159px" viewBox="0 0 291 159" version="1.1" xmlns="http://www.w3.org/2000/svg" xmlns:xlink="http://www.w3.org/1999/xlink" xmlns:sketch="http://www.bohemiancoding.com/sketch/ns">
    <!-- Generator: Sketch 3.0.4 (8054) - http://www.bohemiancoding.com/sketch -->
    <title>Artboard 1</title>
    <desc>Created with Sketch.</desc>
    <defs></defs>
    <g id="Page-1" stroke="none" stroke-width="1" fill="none" fill-rule="evenodd" sketch:type="MSPage">
        <g id="Artboard-1" sketch:type="MSArtboardGroup" fill="#FFFFFF">
            <path d="M40.75,3 L40.75,4.176 L21.375,4.176 L21.375,20.275 L38.25,20.275 L38.25,21.45 L21.375,21.45 L21.375,38.15 L20,38.15 L20,3 L40.75,3 Z" id="Fill-90" sketch:type="MSShapeGroup"></path>
            <path d="M47.375,20.551 L54.075,20.551 C55.725,20.551 57.212,20.355 58.537,19.963 C59.862,19.572 60.987,19.005 61.912,18.263 C62.837,17.522 63.545,16.625 64.037,15.575 C64.529,14.526 64.775,13.342 64.775,12.026 C64.775,9.309 63.891,7.309 62.125,6.026 C60.358,4.742 57.808,4.101 54.475,4.101 L47.375,4.101 L47.375,20.551 Z M47.375,21.601 L47.375,38.151 L46,38.151 L46,3 L54.475,3 C58.291,3 61.191,3.742 63.175,5.226 C65.158,6.709 66.15,8.959 66.15,11.976 C66.15,13.36 65.891,14.617 65.375,15.75 C64.858,16.884 64.133,17.863 63.2,18.688 C62.266,19.513 61.133,20.167 59.8,20.651 C58.466,21.134 56.991,21.426 55.375,21.526 C55.675,21.693 55.966,21.943 56.25,22.276 L69.325,38.151 L68.2,38.151 C68.016,38.151 67.854,38.125 67.712,38.075 C67.57,38.026 67.433,37.909 67.3,37.726 L54.9,22.551 C54.766,22.367 54.629,22.217 54.487,22.101 C54.346,21.985 54.187,21.888 54.012,21.813 C53.837,21.738 53.629,21.684 53.387,21.651 C53.146,21.617 52.85,21.601 52.5,21.601 L47.375,21.601 Z" id="Fill-91" sketch:type="MSShapeGroup"></path>
            <path d="M103.45,19.975 C103.45,17.359 103.088,15.013 102.363,12.938 C101.638,10.863 100.613,9.1 99.288,7.65 C97.963,6.201 96.379,5.092 94.538,4.326 C92.696,3.559 90.658,3.175 88.425,3.175 C86.225,3.175 84.204,3.559 82.363,4.326 C80.521,5.092 78.938,6.201 77.613,7.65 C76.288,9.1 75.254,10.863 74.513,12.938 C73.771,15.013 73.4,17.359 73.4,19.975 C73.4,22.592 73.771,24.938 74.513,27.013 C75.254,29.087 76.288,30.842 77.613,32.275 C78.938,33.708 80.521,34.809 82.363,35.576 C84.204,36.342 86.225,36.725 88.425,36.725 C90.658,36.725 92.696,36.342 94.538,35.576 C96.379,34.809 97.963,33.708 99.288,32.275 C100.613,30.842 101.638,29.087 102.363,27.013 C103.088,24.938 103.45,22.592 103.45,19.975 M104.9,19.975 C104.9,22.725 104.5,25.204 103.7,27.412 C102.9,29.621 101.775,31.504 100.325,33.063 C98.875,34.621 97.141,35.817 95.125,36.65 C93.108,37.484 90.875,37.9 88.425,37.9 C86.009,37.9 83.792,37.484 81.775,36.65 C79.759,35.817 78.025,34.621 76.575,33.063 C75.125,31.504 74,29.621 73.2,27.412 C72.4,25.204 72,22.725 72,19.975 C72,17.242 72.4,14.767 73.2,12.55 C74,10.333 75.125,8.447 76.575,6.888 C78.025,5.329 79.759,4.125 81.775,3.275 C83.792,2.425 86.009,2 88.425,2 C90.875,2 93.108,2.421 95.125,3.263 C97.141,4.105 98.875,5.304 100.325,6.863 C101.775,8.421 102.9,10.309 103.7,12.525 C104.5,14.742 104.9,17.225 104.9,19.975" id="Fill-92" sketch:type="MSShapeGroup"></path>
            <path d="M112.95,3.062 C113.033,3.104 113.125,3.192 113.225,3.325 L137.225,35.8 C137.208,35.65 137.2,35.5 137.2,35.35 L137.2,34.925 L137.2,3 L138.4,3 L138.4,38.15 L137.825,38.15 C137.608,38.15 137.425,38.05 137.275,37.85 L113.15,5.25 C113.166,5.416 113.179,5.575 113.188,5.725 C113.196,5.875 113.2,6.017 113.2,6.15 L113.2,38.15 L112,38.15 L112,3 L112.625,3 C112.758,3 112.867,3.021 112.95,3.062" id="Fill-93" sketch:type="MSShapeGroup"></path>
            <path d="M169.2,3 L169.2,4.2 L156.325,4.2 L156.325,38.15 L154.95,38.15 L154.95,4.2 L142,4.2 L142,3 L169.2,3 Z" id="Fill-94" sketch:type="MSShapeGroup"></path>
            <path d="M175.375,38.15 L174,38.15 L174,3 L175.375,3 L175.375,38.15 Z" id="Fill-95" sketch:type="MSShapeGroup"></path>
            <path d="M184.95,3.062 C185.033,3.104 185.125,3.192 185.224,3.325 L209.224,35.8 C209.208,35.65 209.2,35.5 209.2,35.35 L209.2,34.925 L209.2,3 L210.399,3 L210.399,38.15 L209.825,38.15 C209.608,38.15 209.425,38.05 209.274,37.85 L185.149,5.25 C185.166,5.416 185.179,5.575 185.187,5.725 C185.195,5.875 185.2,6.017 185.2,6.15 L185.2,38.15 L184,38.15 L184,3 L184.625,3 C184.758,3 184.866,3.021 184.95,3.062" id="Fill-96" sketch:type="MSShapeGroup"></path>
            <path d="M243,2 L241,2 L248.032,20.042 L241.208,37.55 L243.208,37.55 L250.032,20.042 L243,2 Z" id="Fill-97" sketch:type="MSShapeGroup"></path>
            <path d="M9.876,3 L7.876,3 L1,20.643 L7.823,38.15 L9.823,38.15 L3,20.643 L9.876,3 Z" id="Fill-98" sketch:type="MSShapeGroup"></path>
            <path d="M222,37.55 L235.856,2 L233.856,2 L220,37.55 L222,37.55 Z" id="Fill-99" sketch:type="MSShapeGroup"></path>
            <path d="M224.903,108.292 L231.301,89.322 L237.668,108.292 L224.903,108.292 Z M145.093,123.474 C132.448,123.474 122.198,113.223 122.198,100.578 C122.198,87.933 132.448,77.682 145.093,77.682 C157.738,77.682 167.989,87.933 167.989,100.578 C167.989,113.223 157.738,123.474 145.093,123.474 L145.093,123.474 Z M60.875,96.219 L60.875,96.238 L55,96.238 L55,94.67 L55,76.806 L55,75.238 L60.875,75.238 L60.875,75.257 C66.499,75.456 71,80.066 71,85.738 C71,91.41 66.499,96.02 60.875,96.219 L60.875,96.219 Z M246.295,48.292 L216.265,48.292 L201.095,87.212 C195.066,61.861 172.29,43 145.093,43 C126.432,43 109.853,51.885 99.332,65.647 C97.617,62.501 95.369,59.667 92.61,57.197 C89.083,54.04 84.514,52.128 78.643,50.187 C73.447,48.472 67.315,48.238 59.344,48.238 L21,48.238 L21,155.238 L55,155.238 L55,123.238 L59.344,123.238 C66.247,123.238 72.673,121.707 78.442,119.802 C82.442,118.48 86.029,116.547 89.164,114.26 C95.307,139.453 118.01,158.157 145.093,158.157 C156.995,158.157 165.765625,155.292 180.232,147.358 L176.529,155.292 L208.817,155.292 L216.305,133.292 L246.25,133.292 L254.317,155.292 L288,155.292 L246.295,48.292 Z" id="Fill-104" sketch:type="MSShapeGroup"></path>
        </g>
    </g>
</svg>
